X: 41374
T: Tuttle's
R: reel
M: 4/4
K: Edorian
E3F GFGA|BdAd Bde2|E3F G2ed|dBAF GFED|
E3F GFGA|BdAd Bde2|g2e g2edB|G3F G2D2:|
Be3 d2BA|Beed dBAA|Beed d2BA|EFGA =cBAG|
Beed d2AF|Beed d2d2|g2e g2edB|G3F G2D2:|

